images/decorative/groups/ruble-icon.svg

<svg width="11" height="14" viewBox="0 0 11 14" fill="none" xmlns="http://www.w3.org/2000/svg">
<path d="M1.7955 14V11.3333H0V10.0588H1.7955V8.31372H0V6.82353H1.7955V0H5.67542C7.4778 0 8.81238 0.346405 9.67917 1.03922C10.5597 1.73203 11 2.73856 11 4.05882C11 5.39216 10.5253 6.43791 9.57598 7.19608C8.62664 7.94118 7.23014 8.31372 5.38649 8.31372H3.65291V10.0588H7.05816V11.3333H3.65291V14H1.7955ZM3.65291 6.82353H5.1182C6.37023 6.82353 7.34021 6.62745 8.02814 6.23529C8.72983 5.84314 9.08068 5.13725 9.08068 4.11765C9.08068 3.22876 8.79174 2.56863 8.21388 2.13726C7.63602 1.70588 6.73483 1.4902 5.51032 1.4902H3.65291V6.82353Z" fill="#122947"/>
</svg>

<svg width="11" height="14" fill="none" xmlns="http://www.w3.org/2000/svg"><path d="M1.796 14v-2.667H0V10.06h1.796V8.314H0v-1.49h1.796V0h3.88c1.802 0 3.136.346 4.003 1.04C10.56 1.731 11 2.738 11 4.058c0 1.333-.475 2.379-1.424 3.137-.95.745-2.346 1.118-4.19 1.118H3.653v1.745h3.405v1.274H3.653V14H1.796Zm1.857-7.176h1.465c1.252 0 2.222-.197 2.91-.589.702-.392 1.053-1.098 1.053-2.117 0-.89-.29-1.55-.867-1.98-.578-.432-1.48-.648-2.704-.648H3.653v5.334Z" fill="#122947"/></svg>
